X:1
T:Battering Ram, The [1]
L:1/8
M:6/8
K:G
B|dBG BAG|dBG G2B|dBG AGE|GED D2B|
dBG BAG|B/c/dG BAG|A3 BAB|GED D2:|
|:B|deg aga|bge edB|deg aga|bge e2b|bag age|ged e/f/ge|dBG AGE|GED D2:|
|:d|B/c/BG A/B/AG|B/c/BD D2B|BAG AGE|GED ded|
B/c/BG A/B/AG|B/c/dG BAG|AGA BAB|GED D2:|
